svgs/sharp-solid/cash-register.svg

<svg xmlns="http://www.w3.org/2000/svg" viewBox="0 0 512 512"><!--! Font Awesome Pro 6.6.0 by @fontawesome - https://fontawesome.com License - https://fontawesome.com/license (Commercial License) Copyright 2024 Fonticons, Inc. --><path d="M320 0L32 0l0 128 112 0 0 32L32 160 0 371.2 0 512l512 0 0-140.8L480 160l-272 0 0-32 112 0L320 0zM96 48l160 0 16 0 0 32-16 0L96 80 80 80l0-32 16 0zM64 416l16 0 352 0 16 0 0 32-16 0L80 448l-16 0 0-32zm72-200l0 48-48 0 0-48 48 0zm48 48l0-48 48 0 0 48-48 0zm0 32l0 48-48 0 0-48 48 0zm96-80l48 0 0 48-48 0 0-48zm-48 80l48 0 0 48-48 0 0-48zm144-80l48 0 0 48-48 0 0-48zm0 80l0 48-48 0 0-48 48 0z"/></svg>

<svg xmlns="http://www.w3.org/2000/svg" viewBox="0 0 512 512"><!--! Font Awesome Pro 6.5.2 by @fontawesome - https://fontawesome.com License - https://fontawesome.com/license (Commercial License) Copyright 2024 Fonticons, Inc. --><path d="M320 0H32V128H144v32H32L0 371.2V512H512V371.2L480 160H208V128H320V0zM96 48H256h16V80H256 96 80V48H96zM64 416H80 432h16v32H432 80 64V416zm72-200v48H88V216h48zm48 48V216h48v48H184zm0 32v48H136V296h48zm96-80h48v48H280V216zm-48 80h48v48H232V296zm144-80h48v48H376V216zm0 80v48H328V296h48z"/></svg>
